assets/images/simple-illustrations/simple-illustration__receipt-wrangler.svg

<svg xmlns="http://www.w3.org/2000/svg" width="48" height="48" fill="none" viewBox="0 0 48 48"><path fill="#F2C8AA" d="M17.5356 25.7284C17.5356 25.7284 16.5927 25.1944 15.8969 25.3592C15.2011 25.524 14.545 26.1374 14.5847 27.4495C14.6244 28.7617 15.0364 29.6223 16.019 29.5796C17.0016 29.5399 18.0361 28.4016 18.1917 29.1279C18.3962 33.6931 22.7111 35.2982 25.4423 35.3959C28.1765 35.4935 29.269 34.0684 29.8701 32.979C30.4713 31.8896 30.6086 27.9378 30.0746 26.055C29.5406 24.1691 28.4756 20.2356 28.4756 20.2356C28.4756 20.2356 22.0001 18.7617 19.9921 20.3576C17.9842 21.9536 17.5326 25.7254 17.5326 25.7254L17.5356 25.7284Z"/><path fill="#FF7101" d="M19.4213 20.3604C19.4213 20.3604 15.4054 21.7549 14.0932 23.3509C14.0932 23.3509 13.4798 26.2591 12.4942 27.8978C11.5116 29.5365 7.82219 32.8139 7.70012 37.199C7.66045 39.3718 10.4649 41.7398 14.9873 41.8069C19.5098 41.8741 21.1271 38.8804 21.1271 38.8804L20.5595 34.1017L19.7661 32.9207C19.7661 32.9207 19.3755 32.6918 18.5974 31.0531L18.1884 29.1276"/><path fill="#FF7101" d="M29.0098 21.3037C29.0098 21.3037 31.1398 28.3529 30.0748 31.7951L32.0553 38.2858C32.0553 38.2858 36.3183 39.4515 38.5155 37.7792C38.5155 37.7792 41.1368 37.0011 40.9323 33.272C40.7279 29.543 36.834 27.5351 36.4648 27.3703C36.0956 27.2055 31.2191 24.0929 30.7705 23.4764C30.322 22.86 29.0098 21.3037 29.0098 21.3037Z"/><path fill="#D18000" d="M12.6192 27.3276C12.6192 27.3276 14.3007 24.8284 14.0932 23.3544C14.0932 23.3544 18.1487 20.6507 19.4212 20.3639C19.4212 20.3639 16.5527 17.5351 12.4545 17.4954C8.35618 17.4557 7.41324 21.7157 7.45596 22.5366C7.49563 23.3575 8.06933 26.6746 10.8982 27.2086C11.8808 27.4131 12.6192 27.3307 12.6192 27.3307V27.3276Z"/><path fill="#D18000" d="M28.4786 20.2385C28.4786 20.2385 30.2394 23.7203 32.0429 24.5809C32.0429 24.5809 35.2806 23.638 35.6071 20.1561C35.9337 16.6742 33.1476 16.7536 33.1476 16.7536C33.1476 16.7536 31.3868 16.8756 30.7704 18.023C30.157 19.1704 28.9669 20.2354 28.4756 20.2354L28.4786 20.2385Z"/><path fill="#FED607" d="M20.325 8.27276C20.325 8.27276 18.2774 6.18242 16.3519 6.26482C14.4263 6.34721 13.4834 8.1507 13.3613 10.1159C13.2393 12.0842 14.5087 16.9179 14.2615 17.574C14.2615 17.574 17.2521 18.7214 17.6213 19.0479C17.9906 19.3744 21.3901 21.6296 24.5881 21.2603C27.7831 20.8911 29.5866 19.4568 29.5866 19.4568C29.5866 19.4568 28.8909 18.3094 28.7657 15.5233C28.6437 12.7372 27.5787 6.34416 24.7499 5.77046C21.921 5.19676 21.2253 7.32677 21.2253 7.32677L20.325 8.26971V8.27276Z"/><path fill="#FFFAF0" d="M24.4196 23.9677C24.4196 23.9677 24.7064 24.3766 25.0329 24.9503C25.3594 25.524 26.22 26.3022 26.22 26.3022C26.22 26.3022 27.8587 26.0153 27.9411 24.3339C28.0235 22.6525 26.0979 22.6128 26.0979 22.6128C26.0979 22.6128 24.6637 22.6525 24.4165 23.9646L24.4196 23.9677Z"/><path fill="#FFFAF0" d="M22.6194 26.5245C23.548 26.5245 24.3008 25.7717 24.3008 24.843C24.3008 23.9144 23.548 23.1616 22.6194 23.1616C21.6908 23.1616 20.938 23.9144 20.938 24.843C20.938 25.7717 21.6908 26.5245 22.6194 26.5245Z"/><path fill="#E4BC07" d="M19.5439 15.8683C19.5439 15.8683 21.674 15.908 22.2477 16.5244C22.8214 17.1408 23.5995 18.9412 23.5995 18.9412C23.5995 18.9412 23.6392 16.6068 24.4601 16.0728C25.2809 15.5387 26.6725 14.8033 26.6725 14.8033C26.6725 14.8033 24.4601 14.7636 24.0511 14.1899C23.6422 13.6162 22.9861 12.2216 22.7817 11.6479C22.7817 11.6479 22.5345 13.778 22.0859 14.2296C21.6343 14.6812 19.9559 15.911 19.5439 15.8683Z"/><path fill="#FFFAF0" d="M23.7642 29.8023C23.7642 29.8023 26.6327 29.8847 27.4932 29.4331C27.4932 29.4331 27.2064 31.4411 25.8118 31.4411C24.4172 31.4411 23.9259 31.0718 23.7642 29.8023Z"/><path fill="#F2C8AA" d="M22.7686 34.95L27.4161 40.4032L28.8321 34.2939C28.8321 34.2939 27.7396 35.4841 26.5922 35.4413C25.4448 35.3986 23.0951 35.1148 22.7686 34.95Z"/><path fill="#0185FF" d="M28.5059 38.3377C28.5059 38.3377 29.5434 38.063 30.1995 38.063C30.8556 38.063 32.0579 38.2827 32.0579 38.2827L30.0774 31.792C30.0774 31.792 29.4915 33.803 28.5608 34.456L28.5059 38.3346V38.3377Z"/><path fill="#0185FF" d="M21.13 38.8831L25.1184 38.5017L22.7687 34.9496C22.7687 34.9496 20.9652 34.2386 20.5288 33.8022L21.13 38.8831Z"/><path stroke="#002140" stroke-linecap="round" stroke-linejoin="round" stroke-width=".857" d="M12.7139 27.2719C9.49147 27.5465 7.46826 25.1419 7.46826 22.5175C7.46826 19.8931 9.59827 17.4366 13.0405 17.5465C17.5751 17.7112 19.1314 21.8462 24.8013 21.2267C31.6704 20.4974 29.7052 16.7256 33.0925 16.7256C37.0046 16.7256 36.0525 23.3201 32.1709 24.5193"/><path stroke="#002140" stroke-linecap="round" stroke-linejoin="round" stroke-width=".857" d="M29.5531 19.4844C28.8756 18.1295 28.7566 16.5701 28.6803 15.081C28.5277 12.0904 27.8564 5.29452 23.5079 5.66072C21.68 5.81329 21.4084 7.31163 20.2549 8.36748"/><path stroke="#002140" stroke-linecap="round" stroke-linejoin="round" stroke-width=".857" d="M22.6592 8.96886C21.469 9.12144 20.5414 8.71558 19.7052 7.89165C18.7074 6.90904 17.7583 6.06375 16.2661 6.23769C11.0753 6.83885 14.3527 15.2521 14.3527 17.6567"/><path stroke="#002140" stroke-linecap="round" stroke-linejoin="round" stroke-width=".857" d="M19.5981 20.3877C19.5981 20.3877 13.971 22.0417 12.2896 25.8104"/><path stroke="#002140" stroke-linecap="round" stroke-linejoin="round" stroke-width=".857" d="M14.0447 23.4697C12.9888 29.8414 8.59149 30.9339 7.82554 35.8226C7.25184 39.7561 13.4313 45.2062 21.1305 38.8833"/><path stroke="#002140" stroke-linecap="round" stroke-linejoin="round" stroke-width=".857" d="M26.1016 35.3869C19.3759 35.8019 18.5764 30.0161 18.2346 29.1281C17.6884 24.4622 20.5233 21.6944 19.6017 20.3853"/><path stroke="#002140" stroke-linecap="round" stroke-linejoin="round" stroke-width=".857" d="M28.5611 20.3335C28.5611 20.3335 34.0784 34.8163 26.1016 35.387"/><path stroke="#002140" stroke-linecap="round" stroke-linejoin="round" stroke-width=".857" d="M24.0443 23.7446C24.9781 25.0599 26.6931 26.015 26.5283 27.1624C26.3635 28.3098 23.8856 28.023 23.6812 27.2448C23.5591 26.6925 24.3159 26.7321 24.5814 26.8969"/><path fill="#002140" d="M26.6448 24.4283L27.2612 23.94C27.0781 23.5555 26.6845 23.29 26.2298 23.29C25.5981 23.29 25.0854 23.8027 25.0854 24.4344C25.0854 25.0661 25.5981 25.5787 26.2298 25.5787C26.7333 25.5787 27.1575 25.2522 27.3131 24.8036L26.6448 24.4313V24.4283Z"/><path fill="#002140" d="M23.1746 24.7823L23.791 24.294C23.6079 23.9095 23.2143 23.644 22.7596 23.644C22.1279 23.644 21.6152 24.1567 21.6152 24.7884C21.6152 25.4201 22.1279 25.9327 22.7596 25.9327C23.2631 25.9327 23.6873 25.6062 23.8429 25.1576L23.1746 24.7853V24.7823Z"/><path stroke="#002140" stroke-linecap="round" stroke-linejoin="round" stroke-width=".857" d="M23.0834 21.9715C23.0834 21.9715 21.3897 21.41 20.7764 23.0243"/><path stroke="#002140" stroke-linecap="round" stroke-linejoin="round" stroke-width=".857" d="M24.832 21.685C24.832 21.685 26.1991 20.7695 27.0994 21.8071"/><path stroke="#002140" stroke-linecap="round" stroke-linejoin="round" stroke-width=".857" d="M28.7651 20.144C30.8128 26.7141 40.9349 26.7538 40.9349 33.864C41.0112 35.6797 39.2687 40.428 32.0548 38.2857"/><path stroke="#002140" stroke-linecap="round" stroke-linejoin="round" stroke-width=".857" d="M23.7671 29.8846C23.7671 29.8846 26.3182 29.8846 27.3771 29.3872"/><path stroke="#002140" stroke-linecap="round" stroke-linejoin="round" stroke-width=".857" d="M23.7671 29.8846C23.7671 29.8846 23.9838 31.7217 25.7598 31.4714C26.8797 31.2853 27.3466 30.3515 27.3771 29.3872"/><path stroke="#002140" stroke-linecap="round" stroke-linejoin="round" stroke-width=".857" d="M27.444 14.7608C24.0659 15.6671 23.7333 16.0943 23.7027 19.5914C22.7964 16.2133 22.3692 15.8807 18.8721 15.8502C22.2502 14.9439 22.5828 14.5167 22.6133 11.0195C23.5196 14.3976 23.9469 14.7303 27.444 14.7608Z"/><path stroke="#002140" stroke-linecap="round" stroke-linejoin="round" stroke-width=".857" d="M22.6992 34.9653L27.3407 40.742"/><path stroke="#002140" stroke-linecap="round" stroke-linejoin="round" stroke-width=".857" d="M28.7222 34.4746L27.3398 40.7426"/><path stroke="#002140" stroke-linecap="round" stroke-linejoin="round" stroke-width=".857" d="M20.5107 33.7021L21.1851 38.899L25.1186 38.6122"/><path stroke="#002140" stroke-linecap="round" stroke-linejoin="round" stroke-width=".857" d="M28.4785 38.2829C28.4785 38.2829 30.6512 37.8312 32.0428 38.3225L30.1172 32.0942"/></svg>

<svg xmlns="http://www.w3.org/2000/svg" width="48" height="48" fill="none" viewBox="0 0 48 48"><path fill="#f2c8aa" d="M17.536 25.728s-.943-.534-1.64-.369c-.695.165-1.351.778-1.311 2.09.04 1.313.451 2.173 1.434 2.13.983-.04 2.017-1.177 2.173-.451.204 4.565 4.52 6.17 7.25 6.268 2.735.097 3.827-1.328 4.428-2.417.601-1.09.739-5.041.205-6.924-.534-1.886-1.6-5.82-1.6-5.82s-6.475-1.473-8.483.123-2.46 5.367-2.46 5.367z"/><path fill="#ff7101" d="M19.421 20.36s-4.016 1.395-5.328 2.99c0 0-.613 2.91-1.599 4.548-.982 1.639-4.672 4.916-4.794 9.301-.04 2.173 2.765 4.54 7.287 4.608s6.14-2.927 6.14-2.927l-.567-4.778-.794-1.181s-.39-.23-1.169-1.868l-.409-1.925m10.822-7.824s2.13 7.049 1.065 10.491l1.98 6.49s4.263 1.167 6.46-.506c0 0 2.622-.778 2.417-4.507-.204-3.729-4.098-5.737-4.467-5.902-.37-.165-5.246-3.277-5.695-3.894-.448-.616-1.76-2.172-1.76-2.172"/><path fill="#d18000" d="M12.62 27.328s1.68-2.5 1.473-3.974c0 0 4.056-2.703 5.328-2.99 0 0-2.868-2.829-6.966-2.869s-5.042 4.22-4.999 5.042c.04.82.613 4.138 3.442 4.672.983.204 1.721.122 1.721.122zm15.859-7.089s1.76 3.481 3.564 4.342c0 0 3.238-.943 3.564-4.425s-2.46-3.402-2.46-3.402-1.76.122-2.377 1.269c-.613 1.147-1.803 2.212-2.294 2.212z"/><path fill="#fed607" d="M20.325 8.273s-2.048-2.09-3.973-2.008c-1.926.082-2.869 1.886-2.99 3.85-.123 1.97 1.147 6.803.9 7.459 0 0 2.99 1.147 3.36 1.474s3.768 2.582 6.966 2.212c3.195-.369 4.999-1.803 4.999-1.803s-.696-1.148-.821-3.934c-.122-2.786-1.187-9.179-4.016-9.753s-3.525 1.557-3.525 1.557l-.9.943z"/><path fill="#fffaf0" d="M24.42 23.968s.286.409.613.982c.326.574 1.187 1.352 1.187 1.352s1.639-.287 1.721-1.968-1.843-1.721-1.843-1.721-1.434.04-1.681 1.352zm-1.8 2.557a1.681 1.681 0 1 0 0-3.363 1.681 1.681 0 0 0 0 3.363"/><path fill="#e4bc07" d="M19.544 15.868s2.13.04 2.704.656c.573.617 1.351 2.417 1.351 2.417s.04-2.334.861-2.868c.82-.534 2.212-1.27 2.212-1.27s-2.212-.04-2.62-.613c-.41-.574-1.066-1.968-1.27-2.542 0 0-.247 2.13-.696 2.582-.452.451-2.13 1.681-2.542 1.638"/><path fill="#fffaf0" d="M23.764 29.802s2.869.083 3.73-.369c0 0-.288 2.008-1.682 2.008-1.395 0-1.886-.37-2.048-1.639"/><path fill="#f2c8aa" d="m22.769 34.95 4.647 5.453 1.416-6.11s-1.092 1.191-2.24 1.148c-1.147-.042-3.497-.326-3.823-.491"/><path fill="#0185ff" d="M28.506 38.338s1.037-.275 1.694-.275c.656 0 1.858.22 1.858.22l-1.98-6.491s-.587 2.011-1.517 2.664l-.055 3.879zm-7.376.545 3.988-.381-2.35-3.552s-1.803-.711-2.24-1.148z"/><path stroke="#002140" stroke-linecap="round" stroke-linejoin="round" stroke-width=".857" d="M12.714 27.272c-3.223.275-5.246-2.13-5.246-4.754 0-2.625 2.13-5.081 5.573-4.971 4.534.164 6.09 4.3 11.76 3.68 6.87-.73 4.904-4.501 8.292-4.501 3.912 0 2.96 6.594-.922 7.793"/><path stroke="#002140" stroke-linecap="round" stroke-linejoin="round" stroke-width=".857" d="M29.553 19.484c-.677-1.355-.796-2.914-.873-4.403-.152-2.99-.824-9.786-5.172-9.42-1.828.152-2.1 1.65-3.253 2.706"/><path stroke="#002140" stroke-linecap="round" stroke-linejoin="round" stroke-width=".857" d="M22.66 8.969c-1.191.152-2.119-.253-2.955-1.077-.998-.983-1.947-1.828-3.439-1.654-5.19.6-1.913 9.014-1.913 11.419m5.245 2.731s-5.627 1.654-7.308 5.422"/><path stroke="#002140" stroke-linecap="round" stroke-linejoin="round" stroke-width=".857" d="M14.045 23.47c-1.056 6.371-5.454 7.464-6.22 12.353-.573 3.933 5.606 9.383 13.306 3.06m4.971-3.496c-6.726.415-7.526-5.37-7.867-6.259-.547-4.666 2.288-7.434 1.367-8.743"/><path stroke="#002140" stroke-linecap="round" stroke-linejoin="round" stroke-width=".857" d="M28.561 20.334s5.517 14.482-2.46 15.053m-2.057-11.642c.934 1.315 2.65 2.27 2.484 3.417-.165 1.148-2.642.861-2.847.083-.122-.553.635-.513.9-.348"/><path fill="#002140" d="m26.645 24.428.616-.488a1.145 1.145 0 1 0 .052.864l-.668-.373zm-3.47.354.616-.488a1.145 1.145 0 1 0 .052.864l-.668-.373z"/><path stroke="#002140" stroke-linecap="round" stroke-linejoin="round" stroke-width=".857" d="M23.083 21.972s-1.693-.562-2.307 1.052m4.056-1.339s1.367-.915 2.267.122m1.666-1.663c2.048 6.57 12.17 6.61 12.17 13.72.076 1.816-1.666 6.564-8.88 4.422m-8.288-8.401s2.551 0 3.61-.498"/><path stroke="#002140" stroke-linecap="round" stroke-linejoin="round" stroke-width=".857" d="M23.767 29.885s.217 1.837 1.993 1.586c1.12-.186 1.587-1.12 1.617-2.084m.067-14.627c-3.378.907-3.71 1.334-3.741 4.831-.907-3.378-1.334-3.71-4.83-3.74 3.377-.907 3.71-1.334 3.74-4.831.907 3.378 1.334 3.71 4.831 3.74M22.7 34.965l4.64 5.777m1.382-6.267-1.382 6.268m-6.83-7.041.675 5.197 3.934-.287m3.36-.329s2.172-.452 3.564.04l-1.926-6.229"/></svg>
